X: 1
T: Wake Up to Cape Breton
C: Brenda Stubbert
R: Reel
O: Cape Breton Island
S: http://www.cranfordpub.com
D: Some Tasty Tunes, 1999; Fiddler's Choice, Jerry Holland
B: Jerry Holland the 2nd Collection, 2000
Z: psc, (re-formatted,updated 9/19/04)
F: http://www.cranfordpub.com/tunes/abcs/stubbertarchive.txt
H: copyrights Stubbert Music, SOCAN
L: 1/8
Q: 333
M: C|
K: EMix
|: e |\
"E"BEEF "D"DEFD | "E"~E2GB "A"eBcA |\
"E"BEEF "D"DEFA | "D"B2AF DEFA |
"E"BEEF "D"DEFD | "E"~E2GB "A"eBcA |"E"BEEF "D"DEF \
[1 D | "Bm"B,A,B,D "E"~E3  :|\
[2  A | "Bm"B{c}dAF "E"~E3  || [K:=g]
K: EDor
|: f |\
"Em"eBBg "(G)"efge | "D"fdcd ABdf |\
"Em"eBBg "(G)"efge | "Bm"dBAF "Em"~E3 f |
"Em"eBBg "(G)"efge | "D"fdcd ABdf |\
"G"gefd "D"ecdA | "Bm"B{c}dAF "Em"E3 :|
